X:1
T:The Beaver Island Boys
M:3/4
L:1/4
K:C
 F3/4- E/4| D D E| F E D| C E E/4- G3/4| G2 E/2E/2| D D E| F E D/2D/2|\
 C c A3/4- G/4| G2 G/2G/2| G G A/2B/2| c/4c/4 c/2- cB/2-G/2| A G E|\
 D z D3/4 E/4| F F/4- A3/4 G| A3/4 G/4 E C3/4 E/4| D C C| C2||
